dist/img/stack/stack-15.svg

<svg width="110" height="110" viewBox="0 0 110 110" fill="none" xmlns="http://www.w3.org/2000/svg">
<g clip-path="url(#clip0_7007_121)">
<path d="M28.629 40.6488H47.5165V42.1397H30.3604V53.3609H46.4935V54.8518H30.3604V67.1715H47.7133V68.6624H28.629V40.6488ZM49.2085 40.6488H51.2153L60.1082 52.9685L69.1978 40.6488L81.5614 25L61.2492 54.2633L71.7161 68.6624H69.6306L60.1082 55.5581L50.5464 68.6624H48.5002L59.0457 54.2633L49.2085 40.6488ZM72.4637 42.1397V40.6488H93.9877V42.1397H84.0718V68.6624H82.3401V42.1397H72.4637ZM5 40.6488H7.16419L37.0071 85L24.6745 68.6624L6.81005 42.7675L6.73135 68.6624H5V40.6488ZM93.8133 66.7215C93.4591 66.7215 93.1941 66.4494 93.1941 66.0976C93.1941 65.7459 93.4591 65.4737 93.8133 65.4737C94.171 65.4737 94.4319 65.7459 94.4319 66.0976C94.4319 66.4494 94.171 66.7215 93.8133 66.7215ZM95.5144 65.08H96.4409C96.4531 65.5783 96.8196 65.9134 97.3592 65.9134C97.9607 65.9134 98.302 65.5532 98.302 64.879V60.6076H99.2455V64.8832C99.2455 66.0976 98.5377 66.797 97.3673 66.797C96.2685 66.797 95.5144 66.1185 95.5144 65.08ZM100.479 65.0256H101.414C101.494 65.5993 102.058 65.9636 102.871 65.9636C103.629 65.9636 104.185 65.5742 104.185 65.0381C104.185 64.5775 103.832 64.3011 103.027 64.1127L102.244 63.9243C101.145 63.6688 100.643 63.1411 100.643 62.2534C100.643 61.1771 101.528 60.461 102.854 60.461C104.088 60.461 104.989 61.1771 105.044 62.1948H104.126C104.037 61.6378 103.549 61.2902 102.842 61.2902C102.096 61.2902 101.599 61.6462 101.599 62.1905C101.599 62.6218 101.919 62.8689 102.711 63.0532L103.381 63.2165C104.627 63.5055 105.141 64.008 105.141 64.9167C105.141 66.0725 104.24 66.797 102.799 66.797C101.452 66.797 100.547 66.106 100.479 65.0256Z" fill="#B7B7BE"/>
</g>
<defs>
<clipPath id="clip0_7007_121">
<rect width="100.141" height="60" fill="white" transform="translate(5 25)"/>
</clipPath>
</defs>
</svg>

<svg width="110" height="110" viewBox="0 0 110 110" fill="none" xmlns="http://www.w3.org/2000/svg"><g clip-path="url(#clip0_7007_121)"><path d="M28.629 40.649h18.887v1.49H30.36v11.222h16.133v1.49H30.36v12.32h17.353v1.491H28.63V40.65zm20.58 0h2.006l8.893 12.32 9.09-12.32L81.56 25 61.25 54.263l10.467 14.4h-2.085l-9.523-13.105-9.562 13.104H48.5l10.546-14.399-9.837-13.614zm23.255 1.49v-1.49h21.524v1.49h-9.916v26.523H82.34V42.14h-9.876zM5 40.65h2.164L37.007 85 24.675 68.662 6.81 42.767l-.079 25.895H5V40.65zm88.813 26.073a.61.61 0 01-.619-.624.61.61 0 01.62-.624c.357 0 .618.272.618.624a.608.608 0 01-.619.624zm1.701-1.642h.927c.012.498.379.833.918.833.602 0 .943-.36.943-1.034v-4.271h.944v4.275c0 1.215-.708 1.914-1.879 1.914-1.099 0-1.853-.678-1.853-1.717zm4.965-.054h.935c.08.573.644.938 1.457.938.758 0 1.314-.39 1.314-.926 0-.46-.353-.737-1.158-.925l-.783-.189c-1.099-.255-1.601-.783-1.601-1.67 0-1.077.885-1.793 2.211-1.793 1.234 0 2.135.716 2.19 1.734h-.918c-.089-.557-.577-.905-1.284-.905-.746 0-1.243.356-1.243.9 0 .432.32.679 1.112.863l.67.164c1.246.288 1.76.791 1.76 1.7 0 1.156-.901 1.88-2.342 1.88-1.347 0-2.252-.691-2.32-1.771z" fill="#B7B7BE"/></g><defs><clipPath id="clip0_7007_121"><path fill="#fff" transform="translate(5 25)" d="M0 0h100.141v60H0z"/></clipPath></defs></svg>
